X: 1
T:Highland Laddie
M:C|
L:1/8
Q:80
C:March
S:
K:HP
A/2B/2|
{Gdc}d3/2e/2{g}fa|
g3/4f/4{g}e3/4d/4{g}f2|  !
{gfg}fe{G}e{g}d/4e3/4|
{g}fe{G}e{g}d/4B3/4|
{Gdc}d3/2e/2{g}fa|  !
g3/4f/4{g}e3/4d/4{g}f{g}e/4f3/4|
{Gdc}dB{gBd}B{d}A/2B/2|
{Gdc}dB{gBd}B|]  !
{gf}g|
{ag}ag/4f3/4{gf}gf/4e3/4|
{g}f3/4e/4{g}d3/4e/4{g}f2|  !
{gfg}fe{G}e{g}d/4e3/4|
{g}fe{G}e{gf}g|
{ag}ag/4f3/4{gf}gf/4e3/4|  !
{g}f3/4e/4{g}d3/4e/4{g}f{g}e/4f3/4|
{Gdc}dB{gBd}B{d}A/2B/2|
{Gdc}dB{gBd}B|]  !
